(
TestABC.test;
TestABCD.test;
LanguageConfig.includePaths.postln;
LanguageConfig.projectOpen.postln;
LanguageConfig.currentDirectory.postln;
LanguageConfig.defaultPathsExcluded.postln;
Quarks.gui;
)


